mimes/16/text-x-script.svg

<?xml version="1.0" encoding="UTF-8" standalone="no"?>
<svg
   xmlns:dc="http://purl.org/dc/elements/1.1/"
   xmlns:cc="http://creativecommons.org/ns#"
   xmlns:rdf="http://www.w3.org/1999/02/22-rdf-syntax-ns#"
   xmlns:svg="http://www.w3.org/2000/svg"
   xmlns="http://www.w3.org/2000/svg"
   xmlns:xlink="http://www.w3.org/1999/xlink"
   id="svg3063"
   height="16"
   width="16"
   version="1.1">
  <defs
     id="defs3065">
    <linearGradient
       gradientTransform="matrix(0.6655579,0,0,1.4407893,-1.8234977,-35.848874)"
       gradientUnits="userSpaceOnUse"
       xlink:href="#linearGradient5031-4"
       id="linearGradient2580-0"
       y2="10.035408"
       x2="22.104254"
       y1="40.124432"
       x1="22.104254" />
    <linearGradient
       id="linearGradient5031-4">
      <stop
         offset="0"
         style="stop-color:#a3a3a3;stop-opacity:1"
         id="stop5033-8" />
      <stop
         offset="1"
         style="stop-color:#bababa;stop-opacity:1"
         id="stop5035-8" />
    </linearGradient>
    <linearGradient
       gradientTransform="matrix(0.25378586,0,0,0.30501865,19.128979,-0.68547704)"
       gradientUnits="userSpaceOnUse"
       xlink:href="#linearGradient3104-9"
       id="linearGradient3019"
       y2="2.9062471"
       x2="-51.786404"
       y1="50.786446"
       x1="-51.786404" />
    <linearGradient
       id="linearGradient3104-9">
      <stop
         offset="0"
         style="stop-color:#000000;stop-opacity:0.33950618"
         id="stop3106-5" />
      <stop
         offset="1"
         style="stop-color:#000000;stop-opacity:0.24691358"
         id="stop3108-5" />
    </linearGradient>
    <linearGradient
       gradientTransform="matrix(0.24324324,0,0,0.35135133,2.1621636,-0.43242804)"
       gradientUnits="userSpaceOnUse"
       xlink:href="#linearGradient3977"
       id="linearGradient3988"
       y2="41.589603"
       x2="23.99999"
       y1="6.2052388"
       x1="23.99999" />
    <linearGradient
       id="linearGradient3977">
      <stop
         offset="0"
         style="stop-color:#ffffff;stop-opacity:1"
         id="stop3979" />
      <stop
         offset="0.02929282"
         style="stop-color:#ffffff;stop-opacity:0.23529412"
         id="stop3981" />
      <stop
         offset="0.97230476"
         style="stop-color:#ffffff;stop-opacity:0.15686275"
         id="stop3983" />
      <stop
         offset="1"
         style="stop-color:#ffffff;stop-opacity:0.39215687"
         id="stop3985" />
    </linearGradient>
    <linearGradient
       id="linearGradient3600">
      <stop
         offset="0"
         style="stop-color:#f4f4f4;stop-opacity:1"
         id="stop3602" />
      <stop
         offset="1"
         style="stop-color:#dbdbdb;stop-opacity:1"
         id="stop3604" />
    </linearGradient>
    <linearGradient
       gradientTransform="matrix(0.28571361,0,0,0.30419701,1.1428727,0.2326048)"
       gradientUnits="userSpaceOnUse"
       xlink:href="#linearGradient3600"
       id="linearGradient3061"
       y2="47.013336"
       x2="25.132275"
       y1="0.98520643"
       x1="25.132275" />
  </defs>
  <metadata
     id="metadata3068">
    <rdf:RDF>
      <cc:Work
         rdf:about="">
        <dc:format>image/svg+xml</dc:format>
        <dc:type
           rdf:resource="http://purl.org/dc/dcmitype/StillImage" />
        <dc:title />
      </cc:Work>
    </rdf:RDF>
  </metadata>
  <g
     id="layer1">
    <path
       style="fill:url(#linearGradient3061);fill-opacity:1;stroke:none;display:inline"
       id="path4160"
       d="m 3,1 c 2.2915074,0 9.999988,8.904e-4 9.999988,8.904e-4 L 13,15 C 13,15 6.3333332,15 3,15 3,10.333334 3,5.6666664 3,1 z" />
    <path
       style="fill:none;stroke:url(#linearGradient3988);stroke-width:1;stroke-linecap:round;stroke-linejoin:miter;stroke-miterlimit:4;stroke-opacity:1;stroke-dasharray:none;stroke-dashoffset:0"
       id="rect6741-1"
       d="m 12.5,14.5 -9.0000001,0 0,-13 L 12.5,1.5 z" />
    <path
       style="fill:none;stroke:url(#linearGradient3019);stroke-width:0.99992192;stroke-linecap:butt;stroke-linejoin:round;stroke-miterlimit:4;stroke-opacity:1;stroke-dasharray:none;stroke-dashoffset:0;display:inline"
       id="path4160-8"
       d="m 2.4999621,0.49997396 c 2.5206756,0 11.0000629,9.54e-4 11.0000629,9.54e-4 l 1.3e-5,14.99909804 c 0,0 -7.3333841,0 -11.000076,0 0,-5.000017 0,-10.000035 0,-15.00005204 z" />
    <path
       style="fill:#b78ed4;fill-opacity:1;stroke:none;display:inline"
       id="path3027"
       d="m 4,7 0,1 3.0625,0 0,-1 L 4,7 z" />
    <path
       style="fill:#d48eb3;fill-opacity:1;stroke:none;display:inline"
       id="path3023"
       d="M 8,7 8,8 12,8 12,7 8,7 z" />
    <path
       style="fill:#89adc2;fill-opacity:1;stroke:none;display:inline"
       id="path2940"
       d="m 10,5 0,1 1.90625,0 0,-1 L 10,5 z m -3,0 0,1 2.15625,0 0,-1 L 7,5 z m -3,0 0,1 2.3125,0 0,-1 L 4,5 z M 7,3 7,4 9,4 9,3 7,3 z M 4,3 4,4 6,4 6,3 4,3 z" />
    <path
       style="fill:#94d48e;fill-opacity:1;stroke:none;display:inline"
       id="path3066"
       d="M 4,9 4,10 6,10 6,9 4,9 z" />
    <path
       style="fill:#de6161;fill-opacity:1;stroke:none;display:inline"
       id="path4009"
       d="m 4,13 3.036746,0 0,1 L 4,14 4,13 z" />
    <path
       style="fill:url(#linearGradient2580-0);fill-opacity:1;stroke:none;display:inline"
       id="path4007"
       d="m 8,13 0,1 3.34375,0 0,-1 L 8,13 z m -4,-2 0,1 2,0 0,-1 -2,0 z M 7,9 7,10 9,10 9,9 7,9 z" />
  </g>
</svg>

<?xml version="1.0" encoding="UTF-8" standalone="no"?>
<svg
   id="svg3063"
   height="16"
   width="16"
   version="1.1"
   sodipodi:docname="text-x-script.svg"
   inkscape:version="1.4 (e7c3feb100, 2024-10-09)"
   xmlns:inkscape="http://www.inkscape.org/namespaces/inkscape"
   xmlns:sodipodi="http://sodipodi.sourceforge.net/DTD/sodipodi-0.dtd"
   xmlns:xlink="http://www.w3.org/1999/xlink"
   xmlns="http://www.w3.org/2000/svg"
   xmlns:svg="http://www.w3.org/2000/svg"
   xmlns:rdf="http://www.w3.org/1999/02/22-rdf-syntax-ns#"
   xmlns:cc="http://creativecommons.org/ns#"
   xmlns:dc="http://purl.org/dc/elements/1.1/">
  <sodipodi:namedview
     id="namedview1"
     pagecolor="#ffffff"
     bordercolor="#000000"
     borderopacity="0.25"
     inkscape:showpageshadow="2"
     inkscape:pageopacity="0.0"
     inkscape:pagecheckerboard="0"
     inkscape:deskcolor="#d1d1d1"
     inkscape:zoom="60.899123"
     inkscape:cx="7.9804105"
     inkscape:cy="8.0132517"
     inkscape:current-layer="svg3063" />
  <defs
     id="defs3065">
    <linearGradient
       gradientTransform="matrix(0.6655579,0,0,1.4407893,-1.8234977,-35.848874)"
       gradientUnits="userSpaceOnUse"
       xlink:href="#linearGradient5031-4"
       id="linearGradient2580-0"
       y2="10.035408"
       x2="22.104254"
       y1="40.124432"
       x1="22.104254" />
    <linearGradient
       id="linearGradient5031-4">
      <stop
         offset="0"
         style="stop-color:#a3a3a3;stop-opacity:1"
         id="stop5033-8" />
      <stop
         offset="1"
         style="stop-color:#bababa;stop-opacity:1"
         id="stop5035-8" />
    </linearGradient>
    <linearGradient
       gradientTransform="matrix(0.25378586,0,0,0.30501865,19.128979,-0.68547704)"
       gradientUnits="userSpaceOnUse"
       xlink:href="#linearGradient3104-9"
       id="linearGradient3019"
       y2="2.9062471"
       x2="-51.786404"
       y1="50.786446"
       x1="-51.786404" />
    <linearGradient
       id="linearGradient3104-9">
      <stop
         offset="0"
         style="stop-color:#000000;stop-opacity:0.33950618"
         id="stop3106-5" />
      <stop
         offset="1"
         style="stop-color:#000000;stop-opacity:0.24691358"
         id="stop3108-5" />
    </linearGradient>
    <linearGradient
       gradientTransform="matrix(0.24324324,0,0,0.35135133,2.1621636,-0.43242804)"
       gradientUnits="userSpaceOnUse"
       xlink:href="#linearGradient3977"
       id="linearGradient3988"
       y2="41.589603"
       x2="23.99999"
       y1="6.2052388"
       x1="23.99999" />
    <linearGradient
       id="linearGradient3977">
      <stop
         offset="0"
         style="stop-color:#ffffff;stop-opacity:1"
         id="stop3979" />
      <stop
         offset="0.02929282"
         style="stop-color:#ffffff;stop-opacity:0.23529412"
         id="stop3981" />
      <stop
         offset="0.97230476"
         style="stop-color:#ffffff;stop-opacity:0.15686275"
         id="stop3983" />
      <stop
         offset="1"
         style="stop-color:#ffffff;stop-opacity:0.39215687"
         id="stop3985" />
    </linearGradient>
    <linearGradient
       id="linearGradient3600">
      <stop
         offset="0"
         style="stop-color:#f4f4f4;stop-opacity:1"
         id="stop3602" />
      <stop
         offset="1"
         style="stop-color:#dbdbdb;stop-opacity:1"
         id="stop3604" />
    </linearGradient>
    <linearGradient
       gradientTransform="matrix(0.28571361,0,0,0.30419701,1.1428727,0.2326048)"
       gradientUnits="userSpaceOnUse"
       xlink:href="#linearGradient3600"
       id="linearGradient3061"
       y2="47.013336"
       x2="25.132275"
       y1="0.98520643"
       x1="25.132275" />
  </defs>
  <metadata
     id="metadata3068">
    <rdf:RDF>
      <cc:Work
         rdf:about="">
        <dc:format>image/svg+xml</dc:format>
        <dc:type
           rdf:resource="http://purl.org/dc/dcmitype/StillImage" />
      </cc:Work>
    </rdf:RDF>
  </metadata>
  <path
     style="display:inline;fill:#b78ed4;fill-opacity:1;stroke:none"
     id="path3027"
     d="M 4,7 V 8 H 7.0625 V 7 Z" />
  <path
     style="display:inline;fill:#d48eb3;fill-opacity:1;stroke:none"
     id="path3023"
     d="m 8,7 v 1 h 4 V 7 Z" />
  <path
     style="display:inline;fill:#89adc2;fill-opacity:1;stroke:none"
     id="path2940"
     d="m 10,5 v 1 h 1.90625 V 5 Z M 7,5 V 6 H 9.15625 V 5 Z M 4,5 V 6 H 6.3125 V 5 Z M 7,3 V 4 H 9 V 3 Z M 4,3 V 4 H 6 V 3 Z" />
  <path
     style="display:inline;fill:#94d48e;fill-opacity:1;stroke:none"
     id="path3066"
     d="m 4,9 v 1 H 6 V 9 Z" />
  <path
     style="display:inline;fill:#de6161;fill-opacity:1;stroke:none"
     id="path4009"
     d="m 4,13 h 3.036746 v 1 H 4 Z" />
  <path
     style="display:inline;fill:url(#linearGradient2580-0);fill-opacity:1;stroke:none"
     id="path4007"
     d="m 8,13 v 1 h 3.34375 V 13 Z M 4,11 v 1 H 6 V 11 Z M 7,9 v 1 H 9 V 9 Z" />
</svg>
